!!!id: EG033
!!!page: 49-52
!!!COM: Anonymous
!!!LYR: Anonymous
!!!PTL@@FR: Chansons Populaires du Canada
!!!OTL@@FR: Digue dindaine
!!!PUB: G. E. Desbarats
!!!YEM:
!!!PDT: 1865
!!!SMA:
!!!OMD:
!!!AGN-Laforte:
!!!AGN-type:
!!!AGN-rime:
**kern
*clefG2
*k[b-]
*F:
*M2/4
*
*
8.cc
16cc
=1
8.cc
16dd
8.a
16a
=2
8.g
16f
12g
12f
12g
!!LO:PB:g=original
=3
8a
8a
8.cc
16cc
=4
8.cc
16dd
8.a
16a
=5
8.gL
16fJ
12g
12f
12g
!!LO:PB:g=original
=6
4a
8.a
16b
=7
8.cc
16b
8cc
8dd
=8
4cc
8.dd
16dd
=9
8.cc
16b
8a\
8dd
!!LO:PB:g=original
=10
4cc
==||
8r
==||
*
*
==|
!!!RNB: Unbeamed triplets are preserved
!!!RNB: Final eighth rest flipped backward in original
*-
